X:364
T:
R:polska
S:Av komminister Olof Laurin i Dalhem.
O:Gotland, Dalhem
M:3/4
L:1/16
K:D
A,DFA defg f4|fd'ba fafd c4|fdba fed'a fdba|ageg Ageg ageg|
fdfa ^gegb afac'|e'd'b^g edBc A4|dFGA BEFG AGEG|AGA,C E4 D4::
f4 afdf gece|dAFA BGEG FACE|DA,DF BAFD AdB^G|AFDF AdB^G A4|
fgec edAF BAGE|cGEG BGEG AFEG|A,DFA BAFD cdef|agBc e4 d4:|

